X: 50
T:Strathspey,A. WI.050
M:C|
Q:160
S:Wm Irwin, Folio MS, c1850. AGG's Transcription
R:Strathspey
O:England
A:Lake District
Z:vmp.Chris Partington.2005
K:Bb
D|B,2B,>E DFF>G|Bcd>c BGFG|G/G/G FF G2g2|fBed c2B2|!
B,2B,>E DFF>G|B>Bd>B BGFB|\
G>BF>B E>BD>B|(d/c/B/A/) B>D C2B,||!
e|d>ef>g f>dB<f|gecf {e}dcBF|G/G/G gf g2gb|dBed c2B2|!
d>ef>g f>dB<f|(g/f/e/d/) cf dcBF|\
G>BF>B E>BD>B|(d/c/B/A/) B>D C2B,|]
